X: 1
T:Good-Bye, Girls
C:from a tape of Manco Snead
N:Recorded 7/28/64 by Glenn Massey in Manco's home.
N:^ in bar 3, line 2, indicates sharpened note.
N:Hold in bar 1, line 4 played sometimes, sometimes not.
M:C
L:1/8
Z:posted by Joel Shimberg 11/98, chords added by Dave Barton 12/98
K:AMix
"A" ABcA E3 D | CEDC A,4 |"Em" E2 F2 G2 G2 |"A" ABAG E A3 |
ABcA E3 D | CEDC A,4 |"G" {C}A,G,A,B, "^"=CDED |"A" E2 [A2A2] A4 :|
|:"A" ABcd e2 (3ABc |"D" defd "G" g3 (3D/2E/2F/2 |\
 G2GB dedB | GBGB "Bm" d2 cd |
"Em" e3f Hg4 | e3d "A" c2 (3BcB |"Em" ABAG EDCD |"A" E[A3A3]A4 :|
